common/media/svg/icons/internet.svg

<?xml version="1.0" encoding="UTF-8" standalone="no"?>
<svg
   xmlns:dc="http://purl.org/dc/elements/1.1/"
   xmlns:cc="http://creativecommons.org/ns#"
   xmlns:rdf="http://www.w3.org/1999/02/22-rdf-syntax-ns#"
   xmlns:svg="http://www.w3.org/2000/svg"
   xmlns="http://www.w3.org/2000/svg"
   xmlns:sodipodi="http://sodipodi.sourceforge.net/DTD/sodipodi-0.dtd"
   xmlns:inkscape="http://www.inkscape.org/namespaces/inkscape"
   version="1.1"
   x="0px"
   y="0px"
   width="32px"
   height="32px"
   viewBox="0 0 32 32"
   enable-background="new 0 0 32 32"
   xml:space="preserve"
   id="svg2"
   >

<metadata><rdf:RDF>

   <cc:Work rdf:about="">
   <dc:format>image/svg+xml</dc:format>
   <dc:type rdf:resource="http://purl.org/dc/dcmitype/StillImage" />
   <dc:title>PICOL Icon</dc:title>
   <dc:date>2009-03-15</dc:date>
   <dc:creator><cc:Agent><dc:title>Melih Bilgil</dc:title></cc:Agent></dc:creator>
   <dc:rights><cc:Agent><dc:title>Creative Commons BY-SA</dc:title></cc:Agent></dc:rights>
   <dc:publisher><cc:Agent><dc:title>PICOL - Pictorial Communication Language</dc:title></cc:Agent></dc:publisher>
   <dc:identifier>http://blog.picol.org</dc:identifier>
   <dc:source>http://blog.picol.org</dc:source>
   <dc:language>en</dc:language>
   <dc:subject>
     <rdf:Bag>
       <rdf:li>PICOL</rdf:li>
       <rdf:li>icon</rdf:li>
       <rdf:li>icons</rdf:li>
       <rdf:li>sign</rdf:li>
       <rdf:li>GUI</rdf:li>
       <rdf:li>vector</rdf:li>
       <rdf:li>interface</rdf:li>
     </rdf:Bag>
   </dc:subject>
   <dc:description>This is one icon out of all PICOL icons</dc:description>
   <dc:contributor>
       <cc:Agent><dc:title>Melih Bilgil (www.lonja.de), Christopher Adjei (www.boffer.net)</dc:title></cc:Agent></dc:contributor>
   <cc:license rdf:resource="http://creativecommons.org/licenses/by-sa/3.0/" /></cc:Work>
   <cc:License rdf:about="http://creativecommons.org/licenses/by-sa/3.0/">
       <cc:permits rdf:resource="http://creativecommons.org/ns#Reproduction" />
       <cc:permits rdf:resource="http://creativecommons.org/ns#Distribution" />
       <cc:requires rdf:resource="http://creativecommons.org/ns#Notice" />
       <cc:requires rdf:resource="http://creativecommons.org/ns#Attribution" />
       <cc:permits rdf:resource="http://creativecommons.org/ns#DerivativeWorks" />
       <cc:requires rdf:resource="http://creativecommons.org/ns#ShareAlike" /></cc:License>

   </rdf:RDF>
</metadata>

<g id="background">
	<rect fill="none" width="32" height="32"/>
</g>
<g id="internet">
	<path d="M26,20.101v-8.201c2.282-0.463,4-2.48,4-4.899c0-2.762-2.238-5-5-5c-2.419,0-4.436,1.718-4.899,4h-8.201
		C11.436,3.718,9.419,2,7,2C4.239,2,2,4.239,2,7c0,2.419,1.718,4.436,4,4.899v8.201C3.718,20.564,2,22.581,2,25c0,2.762,2.238,5,5,5
		c2.419,0,4.436-1.718,4.899-4h8.201c0.464,2.282,2.48,4,4.899,4c2.762,0,5-2.238,5-5C30,22.581,28.282,20.564,26,20.101z
		 M22.247,20.831l-4.832-4.832l4.831-4.831c0.524,0.347,1.116,0.601,1.754,0.731v8.201C23.362,20.23,22.771,20.484,22.247,20.831z
		 M20.83,9.752l-4.831,4.831l-4.83-4.83C11.516,9.229,11.77,8.638,11.899,8h8.201C20.23,8.637,20.483,9.228,20.83,9.752z
		 M9.753,11.169l4.83,4.83L9.752,20.83C9.228,20.483,8.637,20.23,8,20.101v-8.201C8.638,11.77,9.229,11.516,9.753,11.169z
		 M11.168,22.246l4.831-4.831l4.832,4.832c-0.347,0.524-0.601,1.115-0.73,1.753h-8.201C11.77,23.362,11.516,22.771,11.168,22.246z"
		/>
</g>
</svg>

<?xml version="1.0" encoding="UTF-8" standalone="no"?>
<svg
   xmlns:dc="http://purl.org/dc/elements/1.1/"
   xmlns:cc="http://creativecommons.org/ns#"
   xmlns:rdf="http://www.w3.org/1999/02/22-rdf-syntax-ns#"
   xmlns:svg="http://www.w3.org/2000/svg"
   xmlns="http://www.w3.org/2000/svg"
   xmlns:sodipodi="http://sodipodi.sourceforge.net/DTD/sodipodi-0.dtd"
   xmlns:inkscape="http://www.inkscape.org/namespaces/inkscape"
   version="1.1"
   x="0px"
   y="0px"
   width="32px"
   height="32px"
   viewBox="0 0 32 32"
   enable-background="new 0 0 32 32"
   xml:space="preserve"
   id="svg2"
   inkscape:version="0.48.4 r9939"
   sodipodi:docname="internet.svg"><defs
     id="defs3026" /><sodipodi:namedview
     pagecolor="#ffffff"
     bordercolor="#666666"
     borderopacity="1"
     objecttolerance="10"
     gridtolerance="10"
     guidetolerance="10"
     inkscape:pageopacity="0"
     inkscape:pageshadow="2"
     inkscape:window-width="640"
     inkscape:window-height="480"
     id="namedview3024"
     showgrid="false"
     inkscape:zoom="7.375"
     inkscape:cx="16"
     inkscape:cy="16"
     inkscape:window-x="53"
     inkscape:window-y="24"
     inkscape:window-maximized="0"
     inkscape:current-layer="svg2" /><metadata
     id="metadata3016"><rdf:RDF><cc:Work
         rdf:about=""><dc:format>image/svg+xml</dc:format><dc:type
           rdf:resource="http://purl.org/dc/dcmitype/StillImage" /><dc:title>PICOL Icon</dc:title><dc:date>2009-03-15</dc:date><dc:creator><cc:Agent><dc:title>Melih Bilgil</dc:title></cc:Agent></dc:creator><dc:rights><cc:Agent><dc:title>Creative Commons BY-SA</dc:title></cc:Agent></dc:rights><dc:publisher><cc:Agent><dc:title>PICOL - Pictorial Communication Language</dc:title></cc:Agent></dc:publisher><dc:identifier>http://blog.picol.org</dc:identifier><dc:source>http://blog.picol.org</dc:source><dc:language>en</dc:language><dc:subject><rdf:Bag><rdf:li>PICOL</rdf:li><rdf:li>icon</rdf:li><rdf:li>icons</rdf:li><rdf:li>sign</rdf:li><rdf:li>GUI</rdf:li><rdf:li>vector</rdf:li><rdf:li>interface</rdf:li></rdf:Bag></dc:subject><dc:description>This is one icon out of all PICOL icons</dc:description><dc:contributor><cc:Agent><dc:title>Melih Bilgil (www.lonja.de), Christopher Adjei (www.boffer.net)</dc:title></cc:Agent></dc:contributor><cc:license
           rdf:resource="http://creativecommons.org/licenses/by-sa/3.0/" /></cc:Work><cc:License
         rdf:about="http://creativecommons.org/licenses/by-sa/3.0/"><cc:permits
           rdf:resource="http://creativecommons.org/ns#Reproduction" /><cc:permits
           rdf:resource="http://creativecommons.org/ns#Distribution" /><cc:requires
           rdf:resource="http://creativecommons.org/ns#Notice" /><cc:requires
           rdf:resource="http://creativecommons.org/ns#Attribution" /><cc:permits
           rdf:resource="http://creativecommons.org/ns#DerivativeWorks" /><cc:requires
           rdf:resource="http://creativecommons.org/ns#ShareAlike" /></cc:License></rdf:RDF></metadata><g
     id="background"><rect
       fill="none"
       width="32"
       height="32"
       id="rect3019" /></g><path
     id="path3022"
     d="M 26,20.101 V 11.9 c 2.282,-0.463 4,-2.48 4,-4.899 0,-2.762 -2.238,-5 -5,-5 -2.419,0 -4.436,1.718 -4.899,4 H 11.9 C 11.436,3.718 9.419,2 7,2 4.239,2 2,4.239 2,7 2,9.419 3.718,11.436 6,11.899 V 20.1 c -2.282,0.464 -4,2.481 -4,4.9 0,2.762 2.238,5 5,5 2.419,0 4.436,-1.718 4.899,-4 H 20.1 c 0.464,2.282 2.48,4 4.899,4 2.762,0 5,-2.238 5,-5 C 30,22.581 28.282,20.564 26,20.101 z m -3.753,0.73 -4.832,-4.832 4.831,-4.831 c 0.524,0.347 1.116,0.601 1.754,0.731 V 20.1 c -0.638,0.13 -1.229,0.384 -1.753,0.731 z M 20.83,9.752 15.999,14.583 11.169,9.753 C 11.516,9.229 11.77,8.638 11.899,8 H 20.1 c 0.13,0.637 0.383,1.228 0.73,1.752 z m -11.077,1.417 4.83,4.83 -4.831,4.831 C 9.228,20.483 8.637,20.23 8,20.101 V 11.9 c 0.638,-0.13 1.229,-0.384 1.753,-0.731 z m 1.415,11.077 4.831,-4.831 4.832,4.832 C 20.484,22.771 20.23,23.362 20.101,24 H 11.9 c -0.13,-0.638 -0.384,-1.229 -0.732,-1.754 z" /></svg>
